<?xml version="1.0" encoding="UTF-8"?>
<map version="1.0" orientation="orthogonal" renderorder="right-down" width="150" height="75" tilewidth="20" tileheight="20" nextobjectid="22">
 <objectgroup name="collision">
  <object id="3" x="0" y="0">
   <polygon points="0,0 0.333333,153 3000,140 3000,-0.5"/>
  </object>
  <object id="15" x="1143.33" y="846.667">
   <polygon points="-12,-16 720.667,-15.3333 852.667,314.667 966.667,451.667 1236,526 1855.67,566.667 1856.67,653.333 -90.3333,653.333 -65.3333,137"/>
  </object>
  <object id="17" x="1076.33" y="1021">
   <polygon points="0,0 -23.3333,479 -1076.21,478.75 -1075.83,403 -723.333,389 -367.333,335 -186.333,270 -97.3333,155"/>
  </object>
  <object id="18" x="2338" y="143.5">
   <polygon points="0,0 -218,73.5 -411.5,180 -519,284.833 -544.333,373.167 -536.333,457.167 -1137.5,456.5 -1136,336 -1175,259 -1288.5,174.5 -1428.5,83.5 -1651.5,6.5"/>
  </object>
  <object id="19" x="596.667" y="514">
   <polygon points="0,0 34,27.3333 94.6667,18 134.667,-10.6667 136,-54 110.667,-88 40,-94 14,-69.3333"/>
  </object>
  <object id="20" x="2367.33" y="541.333">
   <polygon points="0,0 -61.3333,-8 -99.3333,-39.3333 -102,-86.6667 -70.6667,-116 4,-116.667 23.3333,-84 36.6667,-32"/>
  </object>
 </objectgroup>
</map>
