<?xml version="1.0" encoding="UTF-8"?>
<map version="1.0" orientation="orthogonal" renderorder="right-down" width="150" height="75" tilewidth="20" tileheight="20" nextobjectid="6">
 <objectgroup name="collision">
  <object id="1" x="0" y="305">
   <polygon points="0,0 396,17 490,-87 682,-86 687,-78 696,-80 700,-67 697,-60 715,-52 719,-52 724,-53 726,-43 896,-39 984.667,-46.3333 997.333,-73.6667 1189.33,-69 1254,-59 1285.33,-49 1640.67,-43.6667 1706.67,-53 1718.67,-78.3333 2067.33,-71.6667 2077.33,-41.6667 2126.67,-37 2128,-34.3333 2134.67,-34.3333 2327.33,-34.3333 2338.67,-74.3333 2517.33,-77 2608,-6.33333 3000,-5 3000,-305 0,-305"/>
  </object>
  <object id="3" x="1494" y="1234.5">
   <polygon points="0,0 -145.333,-115.333 6,-224 150,-122.5"/>
  </object>
  <object id="4" x="1496.5" y="548.5">
   <polygon points="0,0 -112,-74.5 3,-156 112,-74.5"/>
  </object>
  <object id="5" x="0" y="1249.5">
   <polygon points="0,0 67.5,0.5 129,73 256.333,77.8333 373.5,73.8333 441.333,64.5 481.333,6.5 667.333,5.83333 671.333,86.5 756.667,105.833 924,100.5 1019.48,57.6212 1674.06,86.7424 2194,38.5 2370,42.5 2386,68.5 2838.67,65.1667 2913.33,-22.8333 3000,-22.8333 3000,250.5 0,250.5"/>
  </object>
 </objectgroup>
</map>
