<?xml version="1.0" encoding="UTF-8"?>
<map version="1.0" orientation="orthogonal" renderorder="right-down" width="150" height="75" tilewidth="20" tileheight="20" nextobjectid="25">
 <objectgroup name="collision" offsetx="-0.0078125" offsety="0.00390625">
  <object id="2" x="770.667" y="376.667">
   <polygon points="0,0 24,16 73.3333,15 86,4.66667 101.333,-4 109,-7.66667 109.667,-20.6667 107.667,-31 104.333,-41.6667 103.333,-48.6667 97.8333,-59.3333 46.8333,-56.3333 1,-55.8333 -0.333333,-35.3333 -1,-20"/>
  </object>
  <object id="3" x="1372" y="367.5">
   <polygon points="0,0 -4.5,-10 7.5,-30.5 29.5,-47 93,-44.5 137.5,-42 155,-39.5 163,-14 163.5,0.5 159.5,13 154,33 141.5,37 106,34.5 60,26.5 30,18 7.5,10"/>
  </object>
  <object id="4" x="2125.5" y="377.5">
   <polygon points="0,0 31,16.5 48.5,22 81.5,22.5 94.5,15.5 110,7 111.5,-18.5 108.5,-37.5 108.5,-44.5 25,-45.5 19.5,-29.5 4.5,-26"/>
  </object>
  <object id="6" x="1330" y="605.333">
   <polygon points="0,0 420,1.33333 420,-19.3333 -0.666667,-19.3333"/>
  </object>
  <object id="7" x="1326" y="858">
   <polygon points="0,0 -0.666667,31.3333 453.333,28 452,0"/>
  </object>
  <object id="9" x="1502" y="1273.5">
   <polygon points="-9.33333,6.66667 -22.6667,0.666667 -39.5,-11.1667 -52.3333,-24.8333 -65.1667,-37 -77.3333,-49.1667 -92.8333,-65.5 -105.833,-83.5 56.3333,-83 54,-60.8333 49,-43.8333 42.5,-27.6667 33.5,-15.5 27.3333,-6.5 12.3333,6.83333"/>
  </object>
  <object id="10" x="2631" y="1157">
   <polygon points="0,0 -24.6667,15 -42.6667,18.3333 -70,16.3333 -94,12.6667 -105,8.33333 -100.333,-19.3333 -97.6667,-25.3333 -101.667,-40.3333 -98.6667,-63.3333 -98.6667,-74.6667 -55,-78.3333 -13,-73.6667 -6.33333,-74.6667 -3.66667,-72.6667 -3,-55.6667"/>
  </object>
  <object id="11" x="3000" y="1179">
   <polygon points="0,0 -89,76 -329,158 -587,199 -888,245 -1036,263 -1080,321 0,321"/>
  </object>
  <object id="12" x="1.33333" y="1221.33">
   <polygon points="0,0 117.333,60 305.333,125.333 544,184 857.333,234.667 1057.33,250.667 1058.67,278.667 -1.33333,278.667"/>
  </object>
  <object id="13" x="582.667" y="1182">
   <polygon points="0,0 -29.3333,4.66667 -70,8 -118.667,-2.66667 -126.667,-6.66667 -133.333,-47.3333 -130,-69.3333 -128.667,-78.6667 0,-75.3333 -3.33333,-60 -6.66667,-45.3333 -5.33333,-32"/>
  </object>
  <object id="20" x="1325.33" y="889.324">
   <polygon points="0,0 47.0091,68.3385 388.176,69.1719 454.176,-3.32813"/>
  </object>
  <object id="21" x="1057.01" y="1471">
   <polygon points="0,0 884,1 883,29 1,29"/>
  </object>
  <object id="22" x="1060.61" y="-3.03421">
   <polygon points="0,0 -1060.61,6.06061 -1057.58,321.212"/>
  </object>
  <object id="23" x="1674.67" y="-0.00390625">
   <polygon points="0,0 1324,1.33333 1325.33,301.333"/>
  </object>
  <object id="24" x="932.008" y="33.3294">
   <polygon points="0,0 -1.33333,-38.6667 865.333,-32 901.333,1.33333"/>
  </object>
 </objectgroup>
</map>
