<?xml version="1.0" encoding="UTF-8"?>
<map version="1.0" orientation="orthogonal" renderorder="right-down" width="150" height="75" tilewidth="20" tileheight="20" nextobjectid="14">
 <objectgroup name="collision">
  <object id="1" x="0" y="0">
   <polygon points="0,0 1040,0 1012,8 1038,24 1032,48.6667 992,43.3333 982.667,49.3333 998,65.3333 972,64 942.667,60 928,69.3333 946,82 908.667,81.3333 848.667,62.6667 807.333,63.3333 762.667,66.6667 736.667,73.3333 675.333,84.6667 566.667,90 506.667,90.6667 481.333,117.333 480.667,140.667 456.667,174.667 406,163.333 311.333,174 296,190.667 300,206.667 280,222.667 242,239.333 218,232.667 205.333,194.667 136.667,203.333 112.667,218.667 98,247.333 88,264.667 78,280.667 42,292.667 20,306.667 -0.666667,308.667"/>
  </object>
  <object id="2" x="770.667" y="376.667">
   <polygon points="0,0 24,16 73.3333,15 86,4.66667 101.333,-4 109,-7.66667 109.667,-20.6667 107.667,-31 104.333,-41.6667 103.333,-48.6667 97.8333,-59.3333 46.8333,-56.3333 1,-55.8333 -0.333333,-35.3333 -1,-20"/>
  </object>
  <object id="3" x="1372" y="367.5">
   <polygon points="0,0 -4.5,-10 7.5,-30.5 29.5,-47 93,-44.5 137.5,-42 155,-39.5 163,-14 163.5,0.5 159.5,13 154,33 141.5,37 106,34.5 60,26.5 30,18 7.5,10"/>
  </object>
  <object id="4" x="2125.5" y="377.5">
   <polygon points="0,0 31,16.5 48.5,22 81.5,22.5 94.5,15.5 110,7 111.5,-18.5 108.5,-37.5 108.5,-44.5 25,-45.5 19.5,-29.5 4.5,-26"/>
  </object>
  <object id="5" x="1762.67" y="0">
   <polygon points="0,0 -14,26 -38.6667,45.3333 -50,65.3333 -61.3333,80.6667 -42.6667,88.6667 -8,91.3333 40,84.6667 60,98 90,104 118,111.333 156.667,98.6667 190,100 210,92 235.333,73.3333 236.667,56 281.333,54 333.333,37.3333 378.667,53.3333 434.667,71.3333 452,76 490.667,68 522,76 557.333,76 593.333,72.6667 610.667,70.6667 622,85.3333 611.333,104.667 633.333,126.667 694.667,137.333 710,170 759.333,175.333 810.667,178 866,200 912.667,190.667 936,176.667 956,162 974,172.667 960.667,203.333 975.333,220 1020,255.333 1176,269.333 1237.33,240 1237.33,0"/>
  </object>
  <object id="6" x="1330" y="593.333">
   <polygon points="0,0 420,1.33333 420,-19.3333 -0.666667,-19.3333"/>
  </object>
  <object id="7" x="1326" y="838">
   <polygon points="0,0 -0.666667,31.3333 453.333,28 452,0"/>
  </object>
  <object id="9" x="1502" y="1273.5">
   <polygon points="0,0 -17,-6 -34.5,-20.5 -52,-36.5 -64.5,-49 -78,-59.5 -90.5,-73.5 -99.5,-83.5 53,-80 55,-64.5 46,-46.5 35.5,-29 27.5,-16.5 17,-7.5 13,-4.5"/>
  </object>
  <object id="10" x="2631" y="1157">
   <polygon points="0,0 -24.6667,15 -42.6667,18.3333 -70,16.3333 -94,12.6667 -105,8.33333 -100.333,-19.3333 -97.6667,-25.3333 -101.667,-40.3333 -98.6667,-63.3333 -98.6667,-74.6667 -55,-78.3333 -13,-73.6667 -6.33333,-74.6667 -3.66667,-72.6667 -3,-55.6667"/>
  </object>
  <object id="11" x="3000" y="1179">
   <polygon points="0,0 -89,76 -329,158 -587,199 -888,245 -1036,263 -1080,321 0,321"/>
  </object>
  <object id="12" x="1.33333" y="1221.33">
   <polygon points="0,0 117.333,60 305.333,125.333 544,184 857.333,234.667 1057.33,250.667 1058.67,278.667 -1.33333,278.667"/>
  </object>
  <object id="13" x="582.667" y="1182">
   <polygon points="0,0 -29.3333,4.66667 -70,8 -118.667,-2.66667 -126.667,-6.66667 -133.333,-47.3333 -130,-69.3333 -128.667,-78.6667 0,-75.3333 -3.33333,-60 -6.66667,-45.3333 -5.33333,-32"/>
  </object>
 </objectgroup>
</map>
