<?xml version="1.0" encoding="UTF-8"?>
<map version="1.2" tiledversion="1.3.4" orientation="orthogonal" renderorder="right-down" width="150" height="75" tilewidth="20" tileheight="20" infinite="0" nextlayerid="2" nextobjectid="28">
 <objectgroup id="1" name="collision">
  <object id="6" x="936.667" y="591.667">
   <polygon points="0,0 -103.333,-0.666667 -87.6667,-84 18,-83.6667"/>
  </object>
  <object id="7" x="846" y="1101.5">
   <polygon points="0,0 -120.5,-0.5 -101.5,-101.5 14,-101"/>
  </object>
  <object id="8" x="2163.33" y="585.333">
   <polygon points="0,0 -105.667,-0.666667 -116.333,-77 -10.3333,-80"/>
  </object>
  <object id="10" x="2277.67" y="1102.33">
   <polygon points="0,0 -124.667,1 -142.333,-105.667 -19.6667,-104.667"/>
  </object>
  <object id="13" x="2.66667" y="265.333">
   <polygon points="0,0 600,-1.33333 672,-266.667 -2.66667,-265.333"/>
  </object>
  <object id="14" x="621.333" y="186.667">
   <polygon points="-5,25 2382.67,27.3333 2378.67,-186.667 52,-186.667"/>
  </object>
  <object id="15" x="2366" y="184">
   <polygon points="0,0 28,68 634,71 634,-2"/>
  </object>
  <object id="16" x="1751.17" y="183.712">
   <polygon points="0,0 5.33333,64.9399 75.8333,64.7883 67,-1.54505"/>
  </object>
  <object id="17" x="1178.67" y="184.667">
   <polygon points="-6,0.5 -14.8333,65.6667 61.1667,66.5 69.3333,1.16667"/>
  </object>
  <object id="19" x="0" y="1400">
   <polygon points="0,0 3000,0 3000,100 0,100"/>
  </object>
  <object id="22" x="81" y="263">
   <polygon points="0,0 -81,0 -81,1145 -1,1144"/>
  </object>
  <object id="24" x="3000" y="256">
   <polygon points="0,0 -81,0 -81,1145 -1,1144"/>
  </object>
 </objectgroup>
</map>
