<?xml version="1.0" encoding="UTF-8"?>
<map version="1.2" tiledversion="1.3.4" orientation="orthogonal" renderorder="right-down" width="150" height="75" tilewidth="20" tileheight="20" infinite="0" nextlayerid="2" nextobjectid="20">
 <objectgroup id="1" name="collision">
  <object id="1" x="0" y="628">
   <polygon points="-4,15.3333 102,15.3333 270,-356.666 2730.67,-355.333 2902.66,16 3001.33,16 3000,-628 0,-628"/>
  </object>
  <object id="2" x="392.171" y="464.774">
   <polygon points="-2.17086,4.64465 32.2011,31.3514 84.1208,2.65409 83.8494,-7.04992 46.4926,-38.9819 -2.17086,-10.9481"/>
  </object>
  <object id="3" x="2549.06" y="461.718">
   <polygon points="-5.54718,1.73394 48.1911,28.0321 82.1676,2.60092 82.2504,-8.16399 32.243,-34.9679 -5.59052,-8.7781"/>
  </object>
  <object id="5" x="1458.5" y="748.322">
   <polygon points="-6.5,-4.38372 93.3333,-4.98837 97.6667,90.5465 101.5,134.081 98,140.128 88.8333,147.384 86.1667,149.198 77.6667,151.012 2,151.012 -6,147.384 -11.3333,140.43 -14,134.081 -10.5,90.9997"/>
  </object>
  <object id="7" x="1596.97" y="1472.73" height="9.09091"/>
  <object id="18" x="0" y="1440" width="3000" height="60"/>
 </objectgroup>
</map>