<?xml version="1.0" encoding="UTF-8"?>
<map version="1.2" tiledversion="1.3.4" orientation="orthogonal" renderorder="right-down" width="150" height="75" tilewidth="20" tileheight="20" infinite="0" nextlayerid="2" nextobjectid="27">
 <objectgroup id="1" name="collision">
  <object id="1" x="0" y="628">
   <polygon points="-4,15.3333 102,15.3333 270,-356.666 2730.67,-355.333 2902.66,16 3001.33,16 3000,-628 0,-628"/>
  </object>
  <object id="2" x="390.734" y="465.105">
   <polygon points="-2.23375,4.74371 33.134,32.02 86.5579,2.71069 86.2786,-7.20027 47.8396,-39.8133 -2.23375,-11.1816"/>
  </object>
  <object id="3" x="2548.69" y="460.996">
   <polygon points="-5.67348,1.7477 49.2883,28.2546 84.0384,2.62156 84.1231,-8.22878 32.9771,-35.2454 -5.71781,-8.84777"/>
  </object>
  <object id="5" x="1458.5" y="748.322">
   <polygon points="-6.5,-4.38372 93.3333,-4.98837 97.6667,90.5465 101.5,134.081 98,140.128 88.8333,147.384 86.1667,149.198 77.6667,151.012 2,151.012 -6,147.384 -11.3333,140.43 -14,134.081 -10.5,90.9997"/>
  </object>
  <object id="20" x="0.333333" y="643.333">
   <polygon points="0,0 79.3333,0 79.3333,797 -0.333333,797"/>
  </object>
  <object id="21" x="3000" y="643.333">
   <polygon points="0,0 -80,1.33333 -80.6667,797.333 -0.666667,797.333"/>
  </object>
  <object id="26" x="73.3333" y="1399.33">
   <polygon points="0,0 2856.67,-18.6667 2926,37.3333 2926.67,100 -73.3333,100.667 -74,41.3333"/>
  </object>
 </objectgroup>
</map>
