<?xml version="1.0" encoding="UTF-8"?>
<map version="1.0" orientation="orthogonal" renderorder="right-down" width="150" height="75" tilewidth="20" tileheight="20" nextobjectid="6">
 <objectgroup name="collision">
  <object id="1" x="0" y="628">
   <polygon points="0,0 76,2 248.667,-377.333 2750.67,-373.333 2917.33,0 3000,0 3000,-628 0,-628"/>
  </object>
  <object id="2" x="403.5" y="460.5">
   <polygon points="0,0 22,21 57,-0.5 56.5,-5.5 32,-27 0,-7.5"/>
  </object>
  <object id="3" x="2566.5" y="461">
   <polygon points="0,0 33.5,20.5 57.5,0 56,-7.5 25,-27.5 1,-6.5"/>
  </object>
  <object id="4" x="2998.67" y="1474.49">
   <polygon points="0.757576,2.33333 -226.121,2.92929 -237.364,-18.6465 -293.788,-18.9091 -293.667,0.89899 -724.545,0.707071 -728.121,-21.0303 -788,-19.5051 -788,-1.32323 -1222.12,-0.676768 -1225,-20.298 -1282.7,-20.6162 -1283.39,0.535354 -1713.33,1.62626 -1713.67,-19.6162 -1775,-19.6465 -1774.52,-0.828283 -2210.09,2.08081 -2210.15,-18.6465 -2267.36,-19.7677 -2270,1.67172 -2702.42,1.33838 -2702.83,-21.4912 -2762.85,-21.423 -2770.39,0.792929 -2926.48,2.56566 -2999.21,3.11111 -2998.85,26.4141 1.33333,25.1414"/>
  </object>
  <object id="5" x="1458.5" y="729.5">
   <polygon points="0,0 87.5,-0.5 91.5,100.5 99.5,146.5 98,154.5 82.5,163.5 79.5,148.5 7,146.5 2,166.5 -6,162.5 -7,152.5 -13,146.5 -4.5,99"/>
  </object>
 </objectgroup>
</map>
